X: 270
T: the Church of Dromore   #2
R: air, jig
%S: s:2 b:9(5+4)
Q: "Moderate"
B: O'Neill's 1850 #270
O: F.O'Neill
Z: 1997 by John Chambers <jc@trillian.mit.edu>
M: 6/8
L: 1/8
K: Am
"^A"[|] D | (EA).A ABc | (TBAB) (G2A) | (Be).e dB [1 A | (TBAB) GE :|[2 G | (BA).A "^fine"A2 |]
"^B"[|  d | (g^fg) (edB) | (BA).A A2d | (Tg^fg) edc | (TBAB) G"^->A2"E |]
